public/images/nhl/tampa-bay-lightning.svg

<svg width="512" height="512" viewBox="0 0 512 512" version="1.1" xmlns="http://www.w3.org/2000/svg" xmlns:xlink="http://www.w3.org/1999/xlink" xmlns:sketch="http://www.bohemiancoding.com/sketch/ns"><title>tampa-bay-lightning</title><desc>Created with Sketch.</desc><defs><path id="a" d="M0 .008h364.289v339.517h-364.289z"/><path id="c" d="M0 .008h364.289v339.517h-364.289z"/></defs><g sketch:type="MSLayerGroup" stroke="none" stroke-width="1" fill="none"><g transform="translate(74 86) translate(0 .937)"><mask id="b" sketch:name="SVGID_1_" fill="#fff"><use xlink:href="#a"/></mask><path d="M364.289 153.55c0-36.906-22.964-73.285-63.727-95.637l-15.616 12.378c27.854 17.505 44.249 43.674 44.249 73.373 0 69.305-85.741 132.084-181.154 132.084-9.79 0-19.4-.72-28.67-2.094l-32.201 23.806c20.33 6.87 43.014 10.515 66.727 10.515 113.265 0 210.393-76.386 210.393-154.425" fill="#003E7E" sketch:type="MSShapeGroup" mask="url(#b)"/></g><g transform="translate(74 86) translate(0 .937)"><mask id="d" sketch:name="SVGID_1_" fill="#fff"><use xlink:href="#c"/></mask><path d="M220.226 179.318l-58.272 11.389 129.251-106.099-60.174 8.056 116.958-92.664-136.154 35.791c-1.795-.037-3.605-.066-5.414-.066-111.584 0-206.42 75.749-206.42 155.673 0 39.222 21.143 70.412 53.915 90.626l-50.314 57.494 216.626-160.199zm-204.669.264c0-71.668 89.78-132.083 181.155-132.083.633 0 1.25.015 1.883.022l-88.341 98.73 50.796-8.028-100.086 96.687 40.591-7.319-28.351 32.404c-34.46-16.298-57.647-44.409-57.647-80.413z" fill="#003E7E" sketch:type="MSShapeGroup" mask="url(#d)"/></g></g></svg>

<?xml version="1.0" encoding="utf-8"?>
<!-- Generator: Adobe Illustrator 16.0.0, SVG Export Plug-In . SVG Version: 6.00 Build 0)  -->
<!DOCTYPE svg PUBLIC "-//W3C//DTD SVG 1.1//EN" "http://www.w3.org/Graphics/SVG/1.1/DTD/svg11.dtd">
<svg version="1.1" id="Layer_1" xmlns:sketch="http://www.bohemiancoding.com/sketch/ns"
	 xmlns="http://www.w3.org/2000/svg" xmlns:xlink="http://www.w3.org/1999/xlink" x="0px" y="0px" width="512px" height="512px"
	 viewBox="0 0 512 512" enable-background="new 0 0 512 512" xml:space="preserve">
<title>tampa-bay-lightning</title>
<desc>Created with Sketch.</desc>
<g sketch:type="MSLayerGroup">
	<g transform="translate(74 86) translate(0 .937)">
		<defs>
			<filter id="Adobe_OpacityMaskFilter" filterUnits="userSpaceOnUse" x="87.17" y="57.913" width="277.12" height="250.062">
				<feColorMatrix  type="matrix" values="1 0 0 0 0  0 1 0 0 0  0 0 1 0 0  0 0 0 1 0"/>
			</filter>
		</defs>
		<mask maskUnits="userSpaceOnUse" x="87.17" y="57.913" width="277.12" height="250.062" id="b">
			<g filter="url(#Adobe_OpacityMaskFilter)">
				<path id="a" fill="#FFFFFF" d="M0,0.008h364.289v339.517H0V0.008z"/>
			</g>
		</mask>
		<path sketch:type="MSShapeGroup" mask="url(#b)" fill="#FFFFFF" d="M364.289,153.55c0-36.906-22.964-73.285-63.727-95.637
			l-15.616,12.378c27.854,17.505,44.249,43.674,44.249,73.373c0,69.305-85.741,132.084-181.154,132.084
			c-9.79,0-19.4-0.721-28.67-2.095L87.17,297.459c20.33,6.871,43.014,10.516,66.727,10.516
			C267.162,307.975,364.29,231.588,364.289,153.55"/>
	</g>
	<g transform="translate(74 86) translate(0 .937)">
		<defs>
			<filter id="Adobe_OpacityMaskFilter_1_" filterUnits="userSpaceOnUse" x="0.001" y="0" width="347.988" height="339.518">
				<feColorMatrix  type="matrix" values="1 0 0 0 0  0 1 0 0 0  0 0 1 0 0  0 0 0 1 0"/>
			</filter>
		</defs>
		<mask maskUnits="userSpaceOnUse" x="0.001" y="0" width="347.988" height="339.518" id="d">
			<g filter="url(#Adobe_OpacityMaskFilter_1_)">
				<path id="c" fill="#FFFFFF" d="M0,0.008h364.289v339.517H0V0.008z"/>
			</g>
		</mask>
		<path sketch:type="MSShapeGroup" mask="url(#d)" fill="#FFFFFF" d="M220.227,179.318l-58.272,11.39l129.251-106.1l-60.174,8.056
			L347.989,0L211.835,35.791c-1.795-0.037-3.604-0.066-5.414-0.066c-111.584,0-206.42,75.749-206.42,155.673
			c0,39.222,21.143,70.412,53.915,90.626L3.602,339.518l216.626-160.199L220.227,179.318z M15.557,179.583
			c0-71.668,89.78-132.083,181.155-132.083c0.633,0,1.25,0.015,1.883,0.022l-88.341,98.73l50.796-8.028L60.964,234.911l40.591-7.32
			l-28.351,32.404C38.744,243.697,15.557,215.586,15.557,179.583z"/>
	</g>
</g>
</svg>
